X: 166
T: Polska frn Malung
O: Dalarna, Malung
R: Polska
Z: Hkan Lidn, 2008-09-28
M: 9/8
L: 1/4
K: Ddor
A3/2 A ^c/ d e/ | f e/ f/ g e g/ | f e/ d/ ^c d f/ | e d/ ^c/B/c/ A3/2 |
A3/2 A ^c/ d e/ | f e/ f/ g e g/ | f e/ d/ ^c d f/ | e/^c/e/ d3 :|
|: a3/2 a/_b/a/ g/a/g/ | f e/ f/ g e g/ | f e/ d/ ^c d f/ | e d/ ^c/B/c/ A3/2 |
a3/2 a/_b/a/ g/a/g/ | f e/ f/ g e g/ | f e/ d/ ^c d f/ | e/^c/e/ d3 :|]
